X:1
T:The Warfare is Raging
M:4/4
L:1/4
K:G
 D- G| G2 D D| G2 G B| A3/2B/4-A/4 G A| B2| d- c| B2 B A| G2 G E| D2 D G|\
 G2||
